X:1
T:No Moon At All
C:David Mann & Redd Evans
L:1/8
M:C
I:linebreak $
K:F
"Dm6" AF G2 A4 |"A7" A2 E2 A4 |"Co" z2 A^F AG^FA |"Em" G2 D2 G4 |$"Eø" z2 GE GFEG |
"Bø" F^C D2"A+" FD E2 ||1"Dm6" D4"F7" z4 |"Bb7" z4"A7" z4 :|2$"Dm6" D8 |"_Fine" z8 |]
[K:D]"D7" z2 D2 F A3 | D2 F2 A4 ||[K:G]"G7" z2 G2 B d3 | G2 B2 d4 ||$[K:C]"C7" z2 c2 _B G3 |
c2 _B2 G2 FG ||[K:F]"F" A2 A2 A2 A2 |"Eø" z c B2"Eb7""_D.C. al 2nd end." A4||

